X:1
T:Title
%%score { ( 1 3 ) | 2 }
L:1/8
M:4/4
K:Bb
V:1 treble nm="Grand Piano"
V:3 treble 
V:2 bass 
V:1
 z4 z2[Q:1/4=106] [B,D]>[CE] | [DF]2 [EG]2 [DF]2 [B,D]>[CE] | [DF]2 [EG]2 [DF]2 [DF]>[DF] | %3
 [FB]4 c4 |[M:3/4] d6 |[M:1/4] D>[CE] |[M:4/4] [DF]2 [EG]2 [DF]2 [B,D]>[CE] | %7
 [DF]2 [EG]2 [DF]2 [FB]2 | d3 B c2 c2 |[M:3/4] [DB]6 |[M:1/4] [DF]2 | %11
[M:4/4] [Fd]3 [Fd] [Ge]2 [Fd]2 | G6 z2 | A3 A G2 F2 | [Fd]6 [DF]>[DF] | [FB]2 c2 d2 cc | %16
 d2 e2 f2 [Ge]2 | d3 B c2 c2 | [B,DB]6 z2 | d6 z2 | G6 z2 | A3 A G2 F2 | [Fd]6 F2 | d6 z2 | %24
 e2 G2 G2 [Ge]2 | d3 B c2 c2 |[M:3/4] [DB]6 |] %27
V:2
 z4 z2 [B,,F,]>[B,,F,] | [B,,B,]2 [B,,B,]2 [B,,B,]2 [B,,F,]>[B,,F,] | %2
 [B,,B,]2 [B,,B,]2 [B,,B,]2 [B,,B,]>[B,,B,] | [D,B,]4[K:treble] [F,A,F]4 |[M:3/4] [B,F]6 | %5
[M:1/4][K:bass] [B,,F,B,]>[B,,F,] |[M:4/4] [B,,B,]2 [B,,B,]2 [B,,B,]2 [B,,F,]>[B,,F,] | %7
 [B,,B,]2 [B,,B,]2 [B,,B,]2 [D,B,]2 | [F,B,F]3 [F,B,D] [F,A,E]2 [F,A,E]2 |[M:3/4] [B,,F,]6 | %10
[M:1/4] [B,,B,]2 |[M:4/4] [B,,B,]3 [B,,B,] [B,,B,]2 [B,,B,]2 | [E,B,E]2 [D,=B,]2 [C,C]2 [C,C]2 | %13
 [F,CE]3 [F,CE] [F,B,E]2 [F,A,E]2 | [B,,B,]6 [B,,B,]>[B,,B,] | %15
 [D,B,]2[K:treble] [F,A,F]2 [B,F]2 [F,A,F][F,A,F] | B,2 [B,CF]2 [B,DB]2[K:bass] [E,B,]2 | %17
 [F,B,F]3 [F,DF] [F,A,E]2 [F,A,E]2 | B,,6[K:treble] F2 | F2[K:bass] [B,,B,]2 [B,,B,]2 z2 | %20
 z2 [E,B,]2 [E,B,]2 [C,B,]2 | [F,CE]3 [F,CE] [F,B,E]2 [F,A,E]2 | [B,,B,]6 z2 | %23
 z2 [B,,B,]2 [B,,B,]2 z2 | z2 [E,B,]2 [E,B,]2 [E,B,]2 | [F,B,F]3 [F,B,D] [F,A,E]2 [F,A,E]2 | %26
[M:3/4] [B,,F,B,]6 |] %27
V:3
 x8 | x8 | x8 | x8 |[M:3/4] x6 |[M:1/4] x2 |[M:4/4] x8 | x8 | x8 |[M:3/4] x6 |[M:1/4] x2 | %11
[M:4/4] x8 | z2 F2 E2 [=EG]2 | x8 | x8 | x8 | x8 | x8 | x8 | z2 F2 F2 F2 | z2 E2 E2 [=EG]2 | x8 | %22
 x8 | z2 F2 F2 f2 | x8 | x8 |[M:3/4] x6 |] %27

